X: 241
T: Major Logans Favorite
R: jig
M: 6/8
L: 1/8
Z: 2012 John Chambers <jc:trillian.mit.edu>
B: J. Anderson "Budget of Strathspeys, Reels and Country Dances" (Early 1800s) p.24 #1
F: http://imslp.org/wiki/Anderson%27s_Budget_of_Strathspeys,_Reels_and_Country_Dances_(Various)
K: D
A |\
d>ed f>ef | dBB B2d | AFd B/A/G/F/E/D/ | Eee e2f |\
DFA d2A | d/c/d/e/f/g/ afd | Bcd AFA | Bdd d2 :|
|: (F/G/) |\
AFA def | AFG A2d | BGE ef(g/f/) | e/f/e/d/c/B/ A/B/A/G/F/E/ |\
DFA d2A | d/c/d/e/f/g/ afd | Bcd AFA | Bdd d2 :|

%%sep 2 1 500
%%sep 1 1 500

